assets/awspinpointapis/original.svg

<svg height="64" viewBox="0 0 64 64" width="64" xmlns="http://www.w3.org/2000/svg"><g fill="none" fill-rule="evenodd"><path d="m0 0h64v64h-64z" fill="#dd344c"/><path d="m21.293 21.293 4.179-4.179a5.96 5.96 0 0 0 -3.469-1.114 6.003 6.003 0 0 0 -5.996 5.997 6.003 6.003 0 0 0 5.996 5.997 6.004 6.004 0 0 0 5.997-5.997 5.95 5.95 0 0 0 -1.114-3.469l-4.179 4.179zm10.569-7.741-3.549 3.55a7.95 7.95 0 0 1 1.687 4.895c0 4.409-3.588 7.997-7.997 7.997s-7.996-3.588-7.996-7.997c0-4.41 3.587-7.997 7.996-7.997 1.845 0 3.541.634 4.895 1.688l3.55-3.55a12.93 12.93 0 0 0 -8.445-3.138c-7.166 0-12.996 5.83-12.996 12.997s5.83 12.997 12.996 12.997 12.997-5.831 12.997-12.997c0-3.225-1.186-6.171-3.138-8.445m2.165-6.538a2.99 2.99 0 0 0 2.987 2.986 2.99 2.99 0 0 0 2.986-2.986 2.99 2.99 0 0 0 -2.986-2.987 2.99 2.99 0 0 0 -2.987 2.987m-2.166 3.71.987-.985a4.94 4.94 0 0 1 -.821-2.725 4.993 4.993 0 0 1 4.987-4.987 4.99 4.99 0 0 1 4.986 4.987 4.99 4.99 0 0 1 -4.986 4.986 4.96 4.96 0 0 1 -2.761-.839l-.978.977c2.312 2.639 3.725 6.083 3.725 9.859 0 8.269-6.728 14.997-14.997 14.997s-14.996-6.728-14.996-14.997 6.727-14.997 14.996-14.997c3.775 0 7.22 1.413 9.858 3.724m12.139 11.276c0 12.131-9.869 22-22 22s-22-9.869-22-22 9.869-22 22-22c3.081 0 6.064.627 8.863 1.863l-.808 1.83a19.8 19.8 0 0 0 -8.055-1.693c-11.028 0-20 8.972-20 20s8.972 20 20 20 20-8.972 20-20c0-2.809-.565-5.505-1.682-8.013l1.829-.813a21.6 21.6 0 0 1 1.853 8.826" fill="#fff" transform="translate(10 10)"/></g></svg>

<svg xmlns="http://www.w3.org/2000/svg" width="64" height="64" viewBox="0 0 64 64"><title>Icon-Architecture/48/Arch_Amazon-Pinpoint-APIs_48</title><g id="Icon-Architecture/48/Arch_Amazon-Pinpoint-APIs_48" fill="none" fill-rule="evenodd" stroke="none" stroke-width="1"><g id="Icon-Architecture-BG/48/Business-Applications" fill="#dd344c"><path id="Rectangle" d="M0 0h64v64H0z"/></g><g id="Icon-Service/48/Amazon-Pinpoint" fill="#fff" transform="translate(10 10)"><path id="Amazon-Pinpoint-Icon_48_Squid" d="m21.293 21.293 4.179-4.179A5.96 5.96 0 0 0 22.003 16a6.003 6.003 0 0 0-5.996 5.997 6.003 6.003 0 0 0 5.996 5.997A6.004 6.004 0 0 0 28 21.997a5.95 5.95 0 0 0-1.114-3.469l-4.179 4.179zm10.569-7.741-3.549 3.55A7.95 7.95 0 0 1 30 21.997c0 4.409-3.588 7.997-7.997 7.997s-7.996-3.588-7.996-7.997c0-4.41 3.587-7.997 7.996-7.997 1.845 0 3.541.634 4.895 1.688l3.55-3.55A12.93 12.93 0 0 0 22.003 9C14.837 9 9.007 14.83 9.007 21.997s5.83 12.997 12.996 12.997S35 29.163 35 21.997c0-3.225-1.186-6.171-3.138-8.445m2.165-6.538A2.99 2.99 0 0 0 37.014 10 2.99 2.99 0 0 0 40 7.014a2.99 2.99 0 0 0-2.986-2.987 2.99 2.99 0 0 0-2.987 2.987m-2.166 3.71.987-.985a4.94 4.94 0 0 1-.821-2.725 4.993 4.993 0 0 1 4.987-4.987A4.99 4.99 0 0 1 42 7.014 4.99 4.99 0 0 1 37.014 12a4.96 4.96 0 0 1-2.761-.839l-.978.977C35.587 14.777 37 18.221 37 21.997c0 8.269-6.728 14.997-14.997 14.997S7.007 30.266 7.007 21.997 13.734 7 22.003 7c3.775 0 7.22 1.413 9.858 3.724M44 22c0 12.131-9.869 22-22 22S0 34.131 0 22 9.869 0 22 0c3.081 0 6.064.627 8.863 1.863l-.808 1.83A19.8 19.8 0 0 0 22 2C10.972 2 2 10.972 2 22s8.972 20 20 20 20-8.972 20-20c0-2.809-.565-5.505-1.682-8.013l1.829-.813A21.6 21.6 0 0 1 44 22"/></g></g></svg>
